X:1
T:Åhusvalsen efter Jöns Jernberg
R:Vals
S:Efter Jöns Jernberg
O:Åhus, Skåne
Z:ABC-transkribering av Patrik Månsson
M:3/4
L:1/8
K:G
|: DG | B3 D GB | BA AD FA | c3 D FA | AG G2 Bc | d2 B2 G2 | E2 c2 c2 | DF AD FA | G2 z2 :|
|: F2 | DG GB Bd | dc cA FA | DF FA Ac | ce dB GB | DG GB Bd | dc cA FA | DF AD FA | G2 :|

